X: 26363
T: Merrily Kissed The Quaker
R: slide
M: 12/8
K: Dmajor
def ABA BGB ABA|def A2A f2a fed|
def ABA BGB A2g|fed faf e3 d2||
|:def f2a f2a fed|dcd a2f ege e2A|
def f2a f2a fed|gfe agf e3 d2:|

